X:210
T: SEID MUNTER UND FROEHLICH
N: E0787
O: Europa, Mitteleuropa, Deutschland, Hessen, Lahn - Tal
R: Abschieds -, Wander -, Trink -  Lied
M: 3/8
L: 1/16
K: G
D2 | G2G2B2 | BAA2
AB | c3edc | Bcd2
BB | B4ed | dcc2z2 |
A2d2dc | B4

